; generated by Slic3r Prusa Edition 1.41.0+win64 on 2018-10-07 at 14:38:35

; 

; external perimeters extrusion width = 0.45mm
; perimeters extrusion width = 0.45mm
; infill extrusion width = 0.45mm
; solid infill extrusion width = 0.45mm
; top infill extrusion width = 0.40mm
; first layer extrusion width = 0.50mm

M107
M17; enable stepper motors
G28 ; home all axes
M82; extruder absolute mode

G1 X130 Y50 Z10 F400; get nozzle height
G30 Z0.8
G1 Z20

G1 X175 Y1 F600

M109 S190
G92 E0

; prime nozzle
G1 X175 Y1 Z0.4 F600
G1 E15 Y40 F250
G1 Y130 Z10 F800

; Filament gcode
G21 ; set units to millimeters
G90 ; use absolute coordinates
M82 ; use absolute distances for extrusion
G92 E0
G1 Z0.250 F7800.000
G1 E-3.00000 F3000.00000
G92 E0
G1 X8.443 Y10.148 F7800.000
G1 E3.00000 F3000.00000
G1 F1800
G1 X10.139 Y9.160 E3.08738
G1 X11.994 Y8.522 E3.17476
G1 X13.946 Y8.256 E3.26249
G1 X100.178 Y8.010 E7.10302
G1 X101.178 Y8.061 E7.14764
G1 X102.176 Y8.213 E7.19260
G1 X103.154 Y8.464 E7.23756
G1 X104.102 Y8.812 E7.28252
G1 X105.010 Y9.254 E7.32749
G1 X105.869 Y9.784 E7.37245
G1 X106.670 Y10.398 E7.41741
G1 X107.406 Y11.089 E7.46237
G1 X108.112 Y11.906 E7.51047
G1 X108.726 Y12.795 E7.55856
G1 X111.456 Y17.674 E7.80757
G1 X112.095 Y19.187 E7.88071
G1 X112.481 Y20.791 E7.95420
G1 X112.595 Y22.046 E8.01031
G1 X113.413 Y53.654 E9.41851
G1 X113.410 Y69.591 E10.12830
G1 X113.193 Y71.376 E10.20839
G1 X112.662 Y73.094 E10.28848
G1 X111.832 Y74.690 E10.36857
G1 X110.726 Y76.117 E10.44901
G1 X110.002 Y76.821 E10.49397
G1 X109.205 Y77.453 E10.53928
G1 X60.853 Y111.686 E13.17781
G1 X59.563 Y112.454 E13.24469
G1 X58.165 Y113.024 E13.31193
G1 X56.744 Y113.371 E13.37708
G1 X55.295 Y113.507 E13.44187
G1 X35.421 Y113.509 E14.32701
G1 X11.472 Y112.809 E15.39408
G1 X9.746 Y112.563 E15.47174
G1 X8.088 Y112.023 E15.54940
G1 X6.548 Y111.204 E15.62706
G1 X5.173 Y110.132 E15.70472
G1 X3.875 Y108.661 E15.79211
G1 X2.887 Y106.966 E15.87949
G1 X2.247 Y105.111 E15.96687
G1 X1.980 Y103.159 E16.05460
G1 X1.709 Y69.762 E17.54205
G1 X1.709 Y54.279 E18.23163
G1 X1.893 Y22.383 E19.65221
G1 X1.967 Y21.337 E19.69892
G1 X2.148 Y20.312 E19.74527
G1 X2.436 Y19.304 E19.79197
G1 X2.825 Y18.338 E19.83833
G1 X5.712 Y13.119 E20.10398
G1 X6.298 Y12.249 E20.15068
G1 X6.967 Y11.452 E20.19703
G1 X8.398 Y10.187 E20.28209
G1 F6240
G1 X10.139 Y9.160 E19.35909
G1 X11.994 Y8.522 E18.46298
G1 X13.946 Y8.256 E17.56332
G1 X14.233 Y8.255 E17.43209
G1 E17.28209 F3000.00000
G92 E0
G1 X109.233 Y44.598 F7800.000
G1 E3.00000 F3000.00000
G1 F1800
G1 X110.227 Y46.909 E3.11204
G1 X110.303 Y47.245 E3.12738
G1 X111.054 Y48.042 E3.17616
G1 X111.979 Y49.502 E3.25313
G1 X112.601 Y51.065 E3.32806
G1 X112.942 Y52.850 E3.40899
G1 X112.927 Y70.420 E4.19151
G1 X112.417 Y72.622 E4.29217
G1 X111.721 Y74.093 E4.36465
G1 X110.792 Y75.398 E4.43598
G1 X109.060 Y77.049 E4.54256
G1 X107.691 Y77.896 E4.61425
G1 X106.130 Y78.514 E4.68902
G1 X104.330 Y78.850 E4.77056
G1 X100.410 Y78.844 E4.94516
G1 X98.737 Y78.530 E5.02097
G1 X97.155 Y77.914 E5.09657
G1 X95.655 Y76.973 E5.17542
G1 X94.126 Y75.523 E5.26928
G1 X93.560 Y74.756 E5.31172
G1 X93.145 Y75.361 E5.34439
G1 X91.524 Y76.936 E5.44503
G1 X90.126 Y77.837 E5.51912
G1 X88.581 Y78.474 E5.59353
G1 X86.370 Y78.875 E5.69363
G1 X82.954 Y78.863 E5.84576
G1 X82.343 Y78.772 E5.87327
G1 X82.152 Y78.832 E5.88219
G1 X80.472 Y79.132 E5.95821
G1 X76.643 Y79.130 E6.12873
G1 X75.050 Y78.852 E6.20074
G1 X73.539 Y78.302 E6.27236
G1 X71.965 Y77.365 E6.35396
G1 X70.222 Y75.726 E6.46050
G1 X69.727 Y75.038 E6.49825
G1 X69.351 Y75.590 E6.52799
G1 X67.766 Y77.152 E6.62709
G1 X65.942 Y78.290 E6.72287
G1 X64.457 Y78.838 E6.79334
G1 X62.914 Y79.120 E6.86319
G1 X61.129 Y79.132 E6.94271
G1 X61.810 Y80.639 E7.01637
G1 X61.971 Y81.396 E7.05082
G1 X62.805 Y82.284 E7.10506
G1 X63.753 Y83.817 E7.18536
G1 X64.309 Y85.252 E7.25389
G1 X64.642 Y86.940 E7.33053
G1 X64.655 Y104.409 E8.10851
G1 X64.277 Y106.361 E8.19708
G1 X63.545 Y108.080 E8.28031
G1 X62.502 Y109.588 E8.36195
G1 X61.297 Y110.809 E8.43836
G1 X59.878 Y111.827 E8.51614
G1 X58.187 Y112.594 E8.59882
G1 X56.062 Y113.037 E8.69551
G1 X52.317 Y113.049 E8.86229
G1 X50.590 Y112.759 E8.94027
G1 X48.978 Y112.157 E9.01690
G1 X47.378 Y111.173 E9.10058
G1 X45.759 Y109.623 E9.20041
G1 X45.286 Y108.949 E9.23707
G1 X44.623 Y109.811 E9.28551
G1 X43.128 Y111.207 E9.37659
G1 X41.915 Y111.984 E9.44074
G1 X40.534 Y112.585 E9.50782
G1 X38.757 Y112.996 E9.58905
G1 X34.615 Y113.047 E9.77355
G1 X32.886 Y112.752 E9.85166
G1 X31.842 Y112.369 E9.90119
G1 X28.832 Y112.360 E10.03524
G1 X27.141 Y112.075 E10.11162
G1 X25.626 Y111.518 E10.18351
G1 X24.138 Y110.648 E10.26028
G1 X22.421 Y109.068 E10.36418
G1 X21.828 Y108.258 E10.40891
G1 X21.277 Y109.009 E10.45044
G1 X19.959 Y110.295 E10.53244
G1 X18.444 Y111.308 E10.61361
G1 X16.941 Y111.945 E10.68631
G1 X15.328 Y112.309 E10.75996
G1 X11.022 Y112.349 E10.95172
G1 X9.292 Y112.027 E11.03012
G1 X7.488 Y111.289 E11.11689
G1 X5.867 Y110.179 E11.20442
G1 X4.511 Y108.802 E11.29048
G1 X3.465 Y107.231 E11.37454
G1 X2.784 Y105.549 E11.45534
G1 X2.443 Y103.732 E11.53769
G1 X2.439 Y86.456 E12.30712
G1 X2.741 Y84.722 E12.38552
G1 X3.384 Y83.055 E12.46506
G1 X4.331 Y81.550 E12.54427
G1 X5.087 Y80.743 E12.59350
G1 X5.571 Y79.225 E12.66446
G1 X6.424 Y77.749 E12.74041
G1 X5.982 Y77.459 E12.76395
G1 X4.383 Y75.934 E12.86233
G1 X3.250 Y74.294 E12.95111
G1 X2.503 Y72.466 E13.03909
G1 X2.161 Y70.493 E13.12825
G1 X2.216 Y52.996 E13.90752
G1 X2.531 Y51.508 E13.97525
G1 X3.099 Y50.069 E14.04418
G1 X4.009 Y48.596 E14.12128
G1 X4.805 Y47.742 E14.17326
G1 X4.849 Y47.526 E14.18306
G1 X5.366 Y46.065 E14.25212
G1 X5.786 Y45.340 E14.28942
G1 X4.478 Y44.079 E14.37029
G1 X3.391 Y42.463 E14.45705
G1 X2.684 Y40.709 E14.54126
G1 X2.350 Y38.810 E14.62715
G1 X2.340 Y21.926 E15.37911
G1 X2.584 Y20.225 E15.45565
G1 X3.173 Y18.547 E15.53483
G1 X4.105 Y16.959 E15.61686
G1 X4.986 Y16.001 E15.67480
G1 X5.554 Y14.306 E15.75444
G1 X6.800 Y12.280 E15.86037
G1 X9.187 Y10.143 E16.00308
G1 X10.768 Y9.338 E16.08207
G1 X12.597 Y8.822 E16.16669
G1 X16.581 Y8.707 E16.34423
G1 X18.873 Y9.172 E16.44839
G1 X21.103 Y10.276 E16.55917
G1 X21.747 Y10.809 E16.59640
G1 X22.387 Y10.273 E16.63360
G1 X24.185 Y9.326 E16.72408
G1 X26.574 Y8.736 E16.83368
G1 X29.836 Y8.700 E16.97898
G1 X31.593 Y8.963 E17.05809
G1 X33.406 Y9.750 E17.14612
G1 X34.089 Y9.391 E17.18049
G1 X35.971 Y8.818 E17.26809
G1 X40.384 Y8.712 E17.46472
G1 X42.552 Y9.208 E17.56377
G1 X44.248 Y10.016 E17.64745
G1 X45.237 Y10.796 E17.70353
G1 X45.978 Y10.191 E17.74613
G1 X47.540 Y9.363 E17.82488
G1 X49.664 Y8.768 E17.92312
G1 X54.023 Y8.738 E18.11724
G1 X55.912 Y9.200 E18.20388
G1 X57.005 Y9.727 E18.25789
G1 X57.793 Y9.315 E18.29748
G1 X59.619 Y8.770 E18.38238
G1 X63.734 Y8.638 E18.56573
G1 X66.119 Y9.138 E18.67428
G1 X67.925 Y9.996 E18.76332
G1 X68.875 Y10.754 E18.81744
G1 X69.702 Y10.085 E18.86480
G1 X71.260 Y9.282 E18.94287
G1 X73.316 Y8.719 E19.03778
G1 X77.243 Y8.648 E19.21272
G1 X79.225 Y9.044 E19.30273
G1 X80.639 Y9.688 E19.37194
G1 X81.613 Y9.167 E19.42113
G1 X83.523 Y8.595 E19.50996
G1 X88.216 Y8.535 E19.71895
G1 X90.189 Y9.045 E19.80974
G1 X91.819 Y9.846 E19.89062
G1 X92.751 Y10.583 E19.94354
G1 X93.530 Y9.942 E19.98845
G1 X95.134 Y9.111 E20.06889
G1 X97.036 Y8.572 E20.15693
G1 X101.546 Y8.528 E20.35780
G1 X103.562 Y9.041 E20.45047
G1 X105.342 Y9.936 E20.53922
G1 X106.868 Y11.160 E20.62632
G1 X108.083 Y12.535 E20.70803
G1 X109.395 Y15.347 E20.84625
G1 X109.484 Y15.729 E20.86371
G1 X110.269 Y16.565 E20.91479
G1 X111.102 Y17.868 E20.98366
G1 X111.731 Y19.374 E21.05636
G1 X112.126 Y21.336 E21.14547
G1 X112.087 Y39.122 E21.93762
G1 X111.725 Y40.740 E22.01146
G1 X111.067 Y42.287 E22.08635
G1 X109.936 Y43.930 E22.17519
G1 X109.277 Y44.557 E22.21566
G1 F6240
G1 X110.227 Y46.909 E21.05692
G1 X110.303 Y47.245 E20.89958
G1 X111.054 Y48.042 E20.39934
G1 X111.979 Y49.502 E19.60997
G1 X112.177 Y49.999 E19.36566
G1 E19.21566 F3000.00000
G92 E0
G1 X92.757 Y11.160 F7800.000
G1 E3.00000 F3000.00000
G1 F1800
G1 X93.757 Y10.327 E3.05796
G1 X95.319 Y9.518 E3.13631
G1 X97.070 Y9.018 E3.21739
G1 X101.521 Y8.975 E3.41562
G1 X103.384 Y9.451 E3.50127
G1 X105.082 Y10.299 E3.58580
G1 X106.573 Y11.496 E3.67097
G1 X107.726 Y12.805 E3.74865
G1 X108.979 Y15.511 E3.88144
G1 X109.073 Y15.944 E3.90121
G1 X109.904 Y16.824 E3.95510
G1 X110.715 Y18.092 E4.02214
G1 X111.311 Y19.525 E4.09127
G1 X111.680 Y21.357 E4.17450
G1 X111.640 Y39.096 E4.96453
G1 X111.294 Y40.621 E5.03417
G1 X110.665 Y42.091 E5.10537
G1 X109.583 Y43.656 E5.19016
G1 X108.658 Y44.525 E5.24665
G1 X108.819 Y44.764 E5.25948
G1 X109.808 Y47.063 E5.37097
G1 X109.891 Y47.460 E5.38900
G1 X110.689 Y48.301 E5.44064
G1 X111.573 Y49.688 E5.51388
G1 X112.166 Y51.171 E5.58501
G1 X112.500 Y52.913 E5.66403
G1 X112.481 Y70.394 E6.44259
G1 X112.003 Y72.454 E6.53674
G1 X111.345 Y73.851 E6.60552
G1 X110.441 Y75.122 E6.67498
G1 X108.770 Y76.709 E6.77764
G1 X107.474 Y77.505 E6.84538
G1 X106.027 Y78.079 E6.91471
G1 X104.269 Y78.407 E6.99435
G1 X100.432 Y78.398 E7.16526
G1 X98.878 Y78.106 E7.23563
G1 X97.374 Y77.524 E7.30748
G1 X95.911 Y76.607 E7.38436
G1 X94.449 Y75.214 E7.47431
G1 X93.543 Y73.974 E7.54272
G1 X92.816 Y75.059 E7.60090
G1 X91.263 Y76.573 E7.69751
G1 X89.935 Y77.433 E7.76794
G1 X88.477 Y78.039 E7.83827
G1 X86.351 Y78.429 E7.93455
G1 X82.973 Y78.417 E8.08500
G1 X82.303 Y78.314 E8.11517
G1 X82.055 Y78.396 E8.12680
G1 X80.452 Y78.685 E8.19937
G1 X76.663 Y78.683 E8.36813
G1 X75.183 Y78.425 E8.43500
G1 X73.748 Y77.907 E8.50299
G1 X72.252 Y77.023 E8.58036
G1 X70.544 Y75.417 E8.68475
G1 X69.714 Y74.242 E8.74882
G1 X69.020 Y75.289 E8.80477
G1 X67.470 Y76.817 E8.90167
G1 X65.765 Y77.880 E8.99118
G1 X64.357 Y78.403 E9.05805
G1 X62.854 Y78.678 E9.12613
G1 X60.323 Y78.689 E9.23883
G1 X60.649 Y79.155 E9.26418
G1 X61.393 Y80.800 E9.34456
G1 X61.559 Y81.610 E9.38140
G1 X62.438 Y82.539 E9.43836
G1 X63.345 Y83.999 E9.51490
G1 X63.875 Y85.358 E9.57988
G1 X64.200 Y87.006 E9.65466
G1 X64.213 Y104.346 E10.42694
G1 X63.856 Y106.209 E10.51144
G1 X63.164 Y107.846 E10.59056
G1 X62.146 Y109.318 E10.67029
G1 X60.994 Y110.481 E10.74322
G1 X59.637 Y111.451 E10.81750
G1 X58.026 Y112.177 E10.89618
G1 X56.038 Y112.591 E10.98663
G1 X52.335 Y112.603 E11.15154
G1 X50.686 Y112.323 E11.22603
G1 X49.194 Y111.765 E11.29697
G1 X47.632 Y110.805 E11.37861
G1 X46.085 Y109.318 E11.47420
G1 X45.305 Y108.186 E11.53542
G1 X44.304 Y109.498 E11.60892
G1 X42.839 Y110.866 E11.69821
G1 X41.690 Y111.598 E11.75886
G1 X40.412 Y112.155 E11.82096
G1 X38.727 Y112.551 E11.89805
G1 X34.670 Y112.603 E12.07876
G1 X32.982 Y112.316 E12.15502
G1 X31.923 Y111.923 E12.20530
G1 X28.852 Y111.914 E12.34210
G1 X27.275 Y111.649 E12.41332
G1 X25.834 Y111.122 E12.48164
G1 X24.385 Y110.275 E12.55642
G1 X22.741 Y108.756 E12.65607
G1 X21.830 Y107.493 E12.72543
G1 X20.951 Y108.704 E12.79204
G1 X19.662 Y109.961 E12.87224
G1 X18.214 Y110.924 E12.94969
G1 X16.786 Y111.526 E13.01872
G1 X15.299 Y111.863 E13.08660
G1 X11.040 Y111.903 E13.27631
G1 X9.397 Y111.592 E13.35079
G1 X7.721 Y110.908 E13.43141
G1 X6.137 Y109.823 E13.51693
G1 X4.870 Y108.536 E13.59735
G1 X3.869 Y107.041 E13.67747
G1 X3.218 Y105.444 E13.75429
G1 X2.889 Y103.711 E13.83285
G1 X2.882 Y86.513 E14.59877
G1 X3.177 Y84.820 E14.67531
G1 X3.792 Y83.237 E14.75093
G1 X4.696 Y81.807 E14.82630
G1 X5.481 Y80.976 E14.87719
G1 X5.989 Y79.385 E14.95160
G1 X7.027 Y77.601 E15.04353
G1 X6.273 Y77.120 E15.08336
G1 X4.708 Y75.628 E15.17967
G1 X3.632 Y74.062 E15.26429
G1 X2.926 Y72.321 E15.34798
G1 X2.608 Y70.475 E15.43139
G1 X2.658 Y53.066 E16.20674
G1 X2.963 Y51.619 E16.27259
G1 X3.507 Y50.252 E16.33810
G1 X4.376 Y48.850 E16.41157
G1 X5.221 Y47.952 E16.46650
G1 X5.276 Y47.657 E16.47983
G1 X5.780 Y46.234 E16.54707
G1 X6.350 Y45.262 E16.59728
G1 X4.835 Y43.809 E16.69077
G1 X3.796 Y42.274 E16.77332
G1 X3.107 Y40.565 E16.85540
G1 X2.794 Y38.753 E16.93728
G1 X2.786 Y21.942 E17.68599
G1 X3.023 Y20.311 E17.75940
G1 X3.587 Y18.717 E17.83469
G1 X4.477 Y17.206 E17.91278
G1 X5.379 Y16.234 E17.97186
G1 X5.948 Y14.517 E18.05240
G1 X7.164 Y12.542 E18.15573
G1 X9.416 Y10.527 E18.29034
G1 X10.912 Y9.761 E18.36519
G1 X12.638 Y9.268 E18.44512
G1 X16.568 Y9.154 E18.62023
G1 X18.754 Y9.604 E18.71963
G1 X20.878 Y10.663 E18.82534
G1 X21.748 Y11.396 E18.87597
G1 X22.618 Y10.656 E18.92684
G1 X24.369 Y9.734 E19.01499
G1 X26.605 Y9.182 E19.11756
G1 X29.790 Y9.144 E19.25941
G1 X31.443 Y9.384 E19.33381
G1 X33.426 Y10.246 E19.43012
G1 X34.242 Y9.811 E19.47129
G1 X36.013 Y9.264 E19.55383
G1 X40.367 Y9.159 E19.74781
G1 X42.382 Y9.621 E19.83991
G1 X44.033 Y10.407 E19.92134
G1 X45.242 Y11.372 E19.99021
G1 X46.208 Y10.575 E20.04599
G1 X47.728 Y9.768 E20.12265
G1 X49.698 Y9.214 E20.21378
G1 X53.944 Y9.179 E20.40289
G1 X55.783 Y9.628 E20.48720
G1 X57.013 Y10.228 E20.54815
G1 X57.943 Y9.736 E20.59505
G1 X59.663 Y9.215 E20.67508
G1 X63.722 Y9.085 E20.85592
G1 X65.951 Y9.552 E20.95738
G1 X67.709 Y10.388 E21.04405
G1 X68.877 Y11.330 E21.11088
G1 X69.928 Y10.471 E21.17133
G1 X71.444 Y9.689 E21.24731
G1 X73.352 Y9.165 E21.33543
G1 X77.179 Y9.091 E21.50591
G1 X79.111 Y9.476 E21.59365
G1 X80.655 Y10.187 E21.66935
G1 X81.765 Y9.587 E21.72555
G1 X83.562 Y9.041 E21.80920
G1 X88.134 Y8.975 E22.01285
G1 X90.013 Y9.456 E22.09924
G1 X91.600 Y10.236 E22.17798
G1 X92.711 Y11.123 E22.24129
G1 F6240
G1 X93.757 Y10.327 E21.64078
G1 X95.319 Y9.518 E20.83734
G1 X97.070 Y9.018 E20.00579
G1 X98.415 Y9.005 E19.39129
G1 E19.24129 F3000.00000
G92 E0
G1 X108.659 Y16.158 F7800.000
G1 E3.00000 F3000.00000
G1 F1800
G1 X109.540 Y17.083 E3.05690
G1 X110.311 Y18.283 E3.12040
G1 X110.878 Y19.635 E3.18570
G1 X111.238 Y21.423 E3.26694
G1 X111.200 Y39.021 E4.05069
G1 X110.863 Y40.502 E4.11831
G1 X110.264 Y41.893 E4.18578
G1 X109.230 Y43.381 E4.26650
G1 X108.050 Y44.479 E4.33826
G1 X108.422 Y44.970 E4.36569
G1 X109.388 Y47.216 E4.47458
G1 X109.478 Y47.673 E4.49530
G1 X110.326 Y48.560 E4.54996
G1 X111.167 Y49.874 E4.61946
G1 X111.732 Y51.277 E4.68681
G1 X112.053 Y52.935 E4.76201
G1 X112.035 Y70.369 E5.53846
G1 X111.588 Y72.286 E5.62614
G1 X110.969 Y73.610 E5.69123
G1 X110.117 Y74.814 E5.75693
G1 X108.516 Y76.341 E5.85549
G1 X107.257 Y77.115 E5.92128
G1 X105.883 Y77.656 E5.98705
G1 X104.249 Y77.961 E6.06107
G1 X100.454 Y77.951 E6.23012
G1 X98.982 Y77.672 E6.29684
G1 X97.592 Y77.134 E6.36322
G1 X96.203 Y76.268 E6.43613
G1 X94.772 Y74.905 E6.52413
G1 X93.883 Y73.680 E6.59154
G1 X93.593 Y73.087 E6.62093
G1 X92.486 Y74.757 E6.71016
G1 X91.001 Y76.212 E6.80276
G1 X89.743 Y77.029 E6.86955
G1 X88.372 Y77.605 E6.93580
G1 X86.331 Y77.982 E7.02822
G1 X82.992 Y77.970 E7.17695
G1 X82.261 Y77.855 E7.20988
G1 X81.957 Y77.961 E7.22424
G1 X80.432 Y78.239 E7.29329
G1 X76.683 Y78.237 E7.46026
G1 X75.281 Y77.989 E7.52367
G1 X73.920 Y77.494 E7.58813
G1 X72.502 Y76.652 E7.66163
G1 X70.868 Y75.109 E7.76171
G1 X69.961 Y73.814 E7.83210
G1 X69.748 Y73.375 E7.85386
G1 X68.689 Y74.988 E7.93981
G1 X67.175 Y76.482 E8.03452
G1 X65.588 Y77.469 E8.11774
G1 X64.221 Y77.977 E8.18273
G1 X62.794 Y78.235 E8.24729
G1 X59.416 Y78.244 E8.39776
G1 X60.254 Y79.364 E8.46009
G1 X60.975 Y80.960 E8.53805
G1 X61.146 Y81.824 E8.57729
G1 X62.072 Y82.795 E8.63706
G1 X62.937 Y84.182 E8.70984
G1 X63.441 Y85.465 E8.77124
G1 X63.758 Y87.071 E8.84414
G1 X63.767 Y104.325 E9.61259
G1 X63.436 Y106.057 E9.69113
G1 X62.762 Y107.650 E9.76816
G1 X61.791 Y109.047 E9.84392
G1 X60.691 Y110.153 E9.91340
G1 X59.396 Y111.074 E9.98417
G1 X57.866 Y111.759 E10.05885
G1 X56.014 Y112.145 E10.14310
G1 X52.353 Y112.156 E10.30616
G1 X50.821 Y111.897 E10.37534
G1 X49.409 Y111.374 E10.44242
G1 X47.887 Y110.438 E10.52198
G1 X46.412 Y109.013 E10.61331
G1 X45.237 Y107.292 E10.70616
G1 X44.866 Y108.026 E10.74279
G1 X43.985 Y109.186 E10.80765
G1 X42.581 Y110.501 E10.89333
G1 X41.465 Y111.212 E10.95225
G1 X40.253 Y111.738 E11.01112
G1 X38.696 Y112.105 E11.08235
G1 X34.724 Y112.160 E11.25925
G1 X33.078 Y111.879 E11.33364
G1 X32.005 Y111.477 E11.38466
G1 X28.871 Y111.468 E11.52424
G1 X27.408 Y111.222 E11.59034
G1 X26.040 Y110.726 E11.65512
G1 X24.669 Y109.930 E11.72573
G1 X23.061 Y108.444 E11.82325
G1 X22.069 Y107.059 E11.89912
G1 X21.819 Y106.543 E11.92464
